svgs/sharp-light/person-booth.svg

<svg xmlns="http://www.w3.org/2000/svg" viewBox="0 0 576 512"><!--! Font Awesome Pro 6.6.0 by @fontawesome - https://fontawesome.com License - https://fontawesome.com/license (Commercial License) Copyright 2024 Fonticons, Inc. --><path d="M80 80a24 24 0 1 0 0-48 24 24 0 1 0 0 48zM80 0a56 56 0 1 1 0 112A56 56 0 1 1 80 0zM32 176l0 16 0 95.6 48 33L80 176l-48 0s0 0 0 0s0 0 0 0zm0 150.4L32 496l0 16L0 512l0-16L0 304.4s0 0 0 0L0 296 0 160l0-16 16 0 80 0 8.7 0 4.7 7.3L176.7 256l63.3 0 16 0 0 32-16 0-72 0-8.7 0-4.7-7.3L112 214.5l0 128.1 41.1 28.2 6.9 4.8 0 8.4 0 112 0 16-32 0 0-16 0-103.6L80.9 360l-.9 0 0-.6-48-33zM208 0l16 0 34.5 0L280 0 560 0l16 0 0 16 0 416 0 16 0 48 0 16-32 0 0-16 0-48-240 0-16 0 0-16 0-64 0-3.3 1.3-3L335 255 268.1 32 240 32l0 192-32 0 0-208 0-16zm93.5 32l65.8 219.4L369 257l-2.3 5.3L320 371.3l0 44.7 224 0 0-384L301.5 32zM240 320l0 176 0 16-32 0 0-16 0-176 32 0z"/></svg>

<svg xmlns="http://www.w3.org/2000/svg" viewBox="0 0 576 512"><!--! Font Awesome Pro 6.4.2 by @fontawesome - https://fontawesome.com License - https://fontawesome.com/license (Commercial License) Copyright 2023 Fonticons, Inc. --><path d="M80 80a24 24 0 1 0 0-48 24 24 0 1 0 0 48zM80 0a56 56 0 1 1 0 112A56 56 0 1 1 80 0zM32 176l0 16 0 95.6 48 33V176H32v0h0zm0 150.4L32 496l0 16L0 512l0-16L0 304.4l0 0V296 160 144H16 96h8.7l4.7 7.3L176.7 256H240h16v32H240 168h-8.7l-4.7-7.3L112 214.5V342.6l41.1 28.2 6.9 4.8V384 496v16H128V496 392.4L80.9 360H80v-.6l-48-33zM208 0h16 34.5H280 560h16V16 432v16 48 16H544V496 448H304 288V432 368v-3.3l1.3-3L335 255 268.1 32H240V224H208V16 0zm93.5 32l65.8 219.4L369 257l-2.3 5.3L320 371.3V416H544V32H301.5zM240 320V496v16H208V496 320h32z"/></svg>
